X:1
T:Title
%%score { ( 1 3 ) | ( 2 4 ) }
L:1/8
M:4/4
K:Db
V:1 treble nm="Grand Piano"
V:3 treble 
V:2 bass 
V:4 bass 
V:1
 z4 z2[Q:1/4=100] [FA]>[FA] | [FA]3 [FA] F2 D2 | [DF]2 [CE]4 [CE]>[DF] | [EG]3 [EG] [DF]2 [CE]2 | %4
 [DF]2 [FA]4 [FA]>[FA] | [EA]2 [EA]2 [EB]2 [EB]2 | [Ec]6 [CEe]>[Ec] | [CA]2 [EA]2 [DB]2 [DB]2 | %8
 [CA]6 [CE]>[CE] | [CE]3 [CE] [EG]2 C2 | E2 [EG]4 F>F | F3 F [FA]2 D2 | F2 [FA]4 [FA]>[FA] | %13
 [GB]2 [GB]2 [Gc]2 [Gc]2 | d6 z2 | z4 c2 z2 |[M:3/4] [Fd]6 |[M:1/4] [FA]>[FA] | %18
[M:4/4] A2 e2 e2 [CGB]2 | [DGB]2 [DFA]4 [A,DF]>[A,DF] | [A,CE]2 [CGB]2 [CGB]2 [A,EG]2 | %21
[M:3/4] [A,EG]2 F4 |[M:1/4] F>E |[M:4/4] D2 F2 [FA]2 [Fd]2 | e2 B2 e2 e2 | z4 c2 z2 | %26
[M:3/4] [Fd]6 |] %27
V:2
 z4 z2 [D,D]>[D,D] | [D,D]3 [D,D] [D,A,D]2 [D,F,]2 | [A,,A,]2 [A,,A,]4 [A,,A,]>[A,,A,] | %3
 [A,,A,]3 [A,,A,] [A,,A,]2 [A,,A,]2 | [D,A,]2 [D,A,]4 [D,A,]>[D,A,] | %5
 [C,A,]2 [C,A,]2 [E,=G,]2 [E,G,]2 | A,2 A,2 A,2 A,,>[A,,A,] | [A,,A,]2 [C,A,]2 [E,=G,]2 [E,G,]2 | %8
 [A,,A,]6 [A,,A,]>[A,,A,] | [A,,A,]3 [A,,A,] [A,,A,]2 [A,,E,A,]2 | %10
 [A,C]2 [A,,A,]4 [D,A,D]>[D,A,D] | [D,A,D]3 [D,A,D] [D,D]2 [D,F,]2 | [D,A,D]2 [D,D]4 [D,D]>[D,D] | %13
 [G,D]2 [G,D]2 [E,A,]2 [E,A,]2 | A,2- [F,A,]2 [G,B,]2 [E,B,]>[E,B,] | %15
 [A,F]2 [A,F]2[K:bass] [A,,A,]2 [A,,A,]2 |[M:3/4] [D,A,]6 |[M:1/4] [D,D]>[D,D] | %18
[M:4/4][K:treble] [A,CG]2 [A,CG]2 [A,CG]2[K:bass] A,,2 | D,2 D,4 D,>D, | A,,2 A,,2 A,,2 C,2 | %21
[M:3/4] D,2 [D,A,D]4 |[M:1/4] [D,A,D]>[D,G,D] |[M:4/4] [D,F,]2 [D,A,D]2 [D,D]2 [D,A,]2 | %24
 [G,B,G]2 [G,DG]2 [G,B,G]2 [G,B,G]2 | [A,F]4[K:bass] [A,,A,]2 [A,,A,]2 |[M:3/4] [D,A,]6 |] %27
V:3
 x8 | x8 | x8 | x8 | x8 | x8 | x8 | x8 | x8 | x8 | x8 | x8 | x8 | x8 | F2 A2 G2 [Ge]>[Ge] | %15
 d2 d2 E>F [Gc]2 |[M:3/4] x6 |[M:1/4] x2 |[M:4/4] x8 | x8 | x8 |[M:3/4] x6 |[M:1/4] x2 | %23
[M:4/4] x8 | x8 | d4 E>F [Gc]2 |[M:3/4] x6 |] %27
V:4
 x8 | x8 | x8 | x8 | x8 | x8 | x8 | x8 | x8 | x8 | x8 | x8 | x8 | x8 | D,2 z2 z4 | x4[K:bass] x4 | %16
[M:3/4] x6 |[M:1/4] x2 |[M:4/4][K:treble] x6[K:bass] x2 | x8 | x8 |[M:3/4] x6 |[M:1/4] x2 | %23
[M:4/4] x8 | x8 | x4[K:bass] x4 |[M:3/4] x6 |] %27

